X:179
T: DER FUCHS GEHT RUM
N: K2366
O: Europa, Mitteleuropa, Deutschland, Kassel
R: Kinder - Lied, Tanz -, Lauf - Spiel
M: 2/4
L: 1/8
K: F
d | cBAd | cBA
F | ccdd | c2A
F | ccdd | ccA
F | ccdd | c2Ad | c2A

